icons/solid/eye-off.svg

<svg width="24" height="24" viewBox="0 0 24 24" fill="none" xmlns="http://www.w3.org/2000/svg">
<path fill-rule="evenodd" clip-rule="evenodd" d="M2.29289 2.29289C2.68342 1.90237 3.31658 1.90237 3.70711 2.29289L6.76107 5.34686C8.20873 4.54643 9.9526 4 12 4C15.4828 4 18.0605 5.57668 19.8105 7.26191C21.5501 8.93729 22.5126 10.7552 22.8112 11.3727C23.0043 11.7721 23.0029 12.231 22.8109 12.6279C22.4704 13.332 21.2366 15.6601 18.929 17.5148L21.7071 20.2929C22.0976 20.6834 22.0976 21.3166 21.7071 21.7071C21.3166 22.0976 20.6834 22.0976 20.2929 21.7071L2.29289 3.70711C1.90237 3.31658 1.90237 2.68342 2.29289 2.29289ZM15.4462 14.032C15.7981 13.4365 16 12.7418 16 12C16 9.79086 14.2091 8 12 8C11.2582 8 10.5635 8.20193 9.96803 8.55382L11.482 10.0677C11.6472 10.0236 11.8208 10 12 10C13.1046 10 14 10.8954 14 12C14 12.1792 13.9764 12.3528 13.9323 12.518L15.4462 14.032ZM5.08522 8.58754L8.03121 11.4979C8.01061 11.6624 8 11.8299 8 12C8 14.2091 9.79086 16 12 16C12.1867 16 12.3705 15.9872 12.5504 15.9624L14.0371 17.4311C14.8534 18.2375 14.5115 19.7963 13.1816 19.9379C12.7988 19.9786 12.405 20 12 20C8.51723 20 5.93946 18.4233 4.18953 16.7381C2.44984 15.0627 1.48734 13.2448 1.18878 12.6273C0.993939 12.2243 0.999572 11.7638 1.1899 11.3704C1.40557 10.9246 1.95389 9.88132 2.87394 8.71681C3.43898 8.00163 4.47267 7.98241 5.08522 8.58754Z" fill="currentColor"/>
</svg>

<svg width="24" height="24" fill="none" xmlns="http://www.w3.org/2000/svg"><path fill-rule="evenodd" clip-rule="evenodd" d="M2.293 2.293a1 1 0 011.414 0l3.054 3.054A10.694 10.694 0 0112 4c3.483 0 6.06 1.577 7.81 3.262a15.09 15.09 0 013.001 4.11c.193.4.192.859 0 1.256-.34.704-1.574 3.032-3.882 4.887l2.778 2.778a1 1 0 01-1.414 1.414l-18-18a1 1 0 010-1.414zm13.153 11.739a4 4 0 00-5.478-5.478l1.514 1.514a2 2 0 012.45 2.45l1.514 1.514zM5.086 8.588l2.945 2.91a4 4 0 004.52 4.465l1.486 1.468c.816.806.474 2.365-.855 2.507-.383.04-.777.062-1.182.062-3.483 0-6.06-1.577-7.81-3.262a15.089 15.089 0 01-3.001-4.11 1.44 1.44 0 010-1.258c.217-.445.765-1.489 1.685-2.653.565-.715 1.599-.735 2.211-.13z" fill="currentColor"/></svg>
